x-pack/solutions/observability/plugins/observability_onboarding/public/assets/javascript.svg

<svg width="16" height="16" viewBox="0 0 16 16" fill="none" xmlns="http://www.w3.org/2000/svg">
<g clip-path="url(#clip0_2274_29567)">
<path d="M1.33346 11.497L2.95865 10.5071C3.27224 11.0666 3.55746 11.54 4.24164 11.54C4.89744 11.54 5.311 11.2818 5.311 10.2776V3.44838H7.30678V10.306C7.30678 12.3863 6.09506 13.3332 4.32717 13.3332C2.7306 13.3332 1.80384 12.5011 1.33337 11.4968L1.33346 11.497ZM8.39082 11.2817L10.0159 10.3349C10.4437 11.038 10.9997 11.5544 11.9833 11.5544C12.8103 11.5544 13.3376 11.1383 13.3376 10.5644C13.3376 9.87579 12.7959 9.63184 11.8835 9.23025L11.3846 9.01485C9.94467 8.39812 8.98955 7.62334 8.98955 5.98778C8.98955 4.48131 10.13 3.3335 11.9121 3.3335C13.1809 3.3335 14.0933 3.77833 14.749 4.94041L13.195 5.94479C12.8528 5.32789 12.4823 5.08401 11.912 5.08401C11.3275 5.08401 10.9568 5.45704 10.9568 5.94479C10.9568 6.54733 11.3275 6.79137 12.1828 7.1644L12.6817 7.37955C14.3782 8.11133 15.3334 8.85731 15.3334 10.5358C15.3334 12.3436 13.922 13.3335 12.026 13.3335C10.1727 13.3335 8.9752 12.444 8.39074 11.2818" fill="black"/>
</g>
<defs>
<clipPath id="clip0_2274_29567">
<rect width="16" height="16" fill="white"/>
</clipPath>
</defs>
</svg>

<svg xmlns="http://www.w3.org/2000/svg" width="16" height="16" fill="none"><g clip-path="url(#a)"><path fill="#000" d="m1.333 11.497 1.626-.99c.313.56.598 1.033 1.283 1.033.655 0 1.069-.258 1.069-1.262v-6.83h1.996v6.858c0 2.08-1.212 3.027-2.98 3.027-1.596 0-2.523-.832-2.994-1.836m7.058-.215 1.625-.947c.428.703.984 1.22 1.967 1.22.827 0 1.355-.417 1.355-.99 0-.69-.542-.933-1.454-1.335l-.5-.215C9.945 8.398 8.99 7.623 8.99 5.988c0-1.507 1.14-2.655 2.922-2.655 1.269 0 2.181.445 2.837 1.607l-1.554 1.005c-.342-.617-.713-.861-1.283-.861-.585 0-.955.373-.955.86 0 .603.37.847 1.226 1.22l.499.216c1.696.731 2.651 1.477 2.651 3.156 0 1.808-1.411 2.798-3.307 2.798-1.853 0-3.05-.89-3.635-2.052"/></g><defs><clipPath id="a"><path fill="#fff" d="M0 0h16v16H0z"/></clipPath></defs></svg>
